X: 499
T: Ge jiucai
L: 1/8
M: 2/4
K: G
G2G E [I:setbarnb 1]| 
D2D2 | 
G2G B | 
A4 | 
d2d B | 
A2G2 | 
E D E G | 
D4 | 
G2G E | 
D2D2 | 
G3B | 
A4 | 
d2G2 | 
A B A G | 
D3E | 
D4 |]

@@@ Tune index: 9373
